X: 10341
P: Arranged by W. B. Laybourn
M: 2/4
L: 1/16
Q: "Allegro"
K: E
vBuB |\
|: gg |\
g2gg g2gg | g2c'2g2c'2 | g2c'2g2f2 | e2(.d2.c2) gg |\
g2g g2gg | g2c'2 g2c'2 | g2c'2b2^a2 | b2(.^a2.b2) :|
|: BB |\
.B.c.d.e .d.e.f.g | (ag).a.g | (ag).a.g | (ag)a.f (dB).A.F |\
.E.F.G.A .G.A.B.c | .B.c.d.e .d.e.f.g | (ag).a.g (ag).a.g |
(ag).a.f (dB).A.F | E2B,B, E2B,B, | G2EE B2GG | e2BB e2BB |\
g2ee b2gg | ve2z2z4 | ve'2z2z4 | HE8 "_Fine"|]


